X:1
T:Walk in Jerusalem
M:4/4
L:1/4
K:F
 F F2 F/2A/2| c2 c2| d d2 d/2f/2| c2A/2-F/2 F| F F2 G/2A/2| G2 F3/2 F/2|\
 F/2 F A/2G/2 F/2 D| F F F c| c A A A/2A/2| A A F2| F/2 F A/2G/2 F/2 D|\
 F F F c| c A A A| A A F2| F/2 F A/2G/2 F/2 D| F F F2|

